X:1
T:Title
%%score { ( 1 3 ) | 2 }
L:1/8
Q:1/4=100
M:4/4
K:G
V:1 treble nm="Grand Piano"
V:3 treble 
V:2 bass 
V:1
 [DB]3 [DB] [CA][DB] [B,G]>[B,D] | [CE] [EG]3- [EG]3 z | A3 B ce d>c | B6 z2 | %4
 [DB]3 [DB] [CA][DB] [B,G]>[B,D] | [CE] [EG]3- [EG]3 z | FGAG B3 A | [B,DG]6 z2 | A3 B ce d>c | %9
 B d3- d3 z | A3 A AAB^c | d4 c2 z2 | [DB]3 [DB] [CA][DB] [B,G]>[B,D] | [CE] [EG]3- [EG]3 z | %14
 FGAG B3 A | [B,DG]6 z2 |] %16
V:2
 [G,,G,]3 [G,,G,] [G,,G,][G,,G,] [G,,G,]>[G,,G,] | [C,G,] [C,G,]3- [C,G,]3 z | %2
 [D,F,D]3 [D,G,D] [D,A,D][D,CD] [D,B,D]>[D,A,D] | [G,D]6 z2 | %4
 [G,,G,]3 [G,,G,] [G,,G,][G,,G,] [G,,G,]>[G,,G,] | [C,G,] [C,C]3- [C,C]3 z | %6
 [D,A,D][D,B,D][D,CD][D,B,D] [D,D]3 [D,CD] | G,,6 z2 | %8
 [D,F,D]3 [D,G,D] [D,A,D][D,CD] [D,B,D]>[D,A,D] | [G,D] [G,B,G]3- [G,B,G]3 z | %10
 [A,DF]3 [A,DF] [A,^CG][A,CG][A,CG][A,G] | [D,A,]6 z2 | %12
 [G,,G,]3 [G,,G,] [G,,G,][G,,G,] [G,,G,]>[G,,G,] | [C,G,] [C,C]3- [C,C]3 z | %14
 [D,A,D][D,B,D][D,CD][D,B,D] [D,D]3 [D,C] | G,,6 z2 |] %16
V:3
 x8 | x8 | x8 | x8 | x8 | x8 | x8 | x8 | x8 | x8 | x8 | F6 z2 | x8 | x8 | x8 | x8 |] %16

